build/img/features/feature-5.svg

<svg width="108" height="108" viewBox="0 0 108 108" fill="none" xmlns="http://www.w3.org/2000/svg">
<g clip-path="url(#clip0)">
<path d="M106.788 40.312L71.7103 40.4034C71.7103 40.4447 71.7103 40.4858 71.7103 40.5272H36.2897V40.4945L23.5001 40.527L23.4689 40.4945H6.34622e-07V84.8569C-0.00210874 91.3369 5.25445 96.5914 11.7345 96.5914H106.79C107.459 96.5914 108 96.0503 108 95.381V41.5224C108 40.8531 107.457 40.312 106.788 40.312Z" fill="#5D5D5D"/>
<path d="M40.3228 53.6554L37.5412 49.9464C37.3501 49.6918 36.9678 49.6918 36.7767 49.9464L33.9951 53.6554C33.9331 53.7383 33.8995 53.8387 33.8995 53.942V81.2173V87.1387C33.8995 88.3991 34.9209 89.4204 36.1812 89.4204H38.1371C39.3974 89.4204 40.4188 88.3991 40.4188 87.1387V81.2173V53.942C40.4186 53.8387 40.385 53.738 40.3228 53.6554Z" fill="white"/>
<path d="M40.4186 81.2173V87.1387C40.4186 88.3991 39.3972 89.4204 38.1369 89.4204H36.1811C34.9207 89.4204 33.8994 88.3991 33.8994 87.1387V81.2173H40.4186Z" fill="white"/>
<path d="M23.4689 40.5272V84.8572C23.4689 78.2251 17.9668 72.8772 11.2782 73.1314C5.19581 73.3617 0.239203 78.3183 0.00885938 84.4007C0.00210937 84.5528 0 84.7051 0 84.8572V39.1799C0 32.7326 5.13063 27.3564 11.5779 27.2716C18.1297 27.1868 23.4689 32.474 23.4689 39.0061V40.5272Z" fill="#07BBF0"/>
<path d="M89.4206 84.9948L54 85.0862V57.8166C54 56.8127 54.8127 56 55.8166 56H60.3018C68.3421 56 75.6217 59.2596 80.8914 64.5293C86.1348 69.7725 89.3879 77.0045 89.4206 84.9948ZM61.6058 77.5129H80.4265C77.4951 69.7791 70.2262 64.1618 61.6058 63.6446V77.5129Z" fill="#07BBF0"/>
</g>
<defs>
<clipPath id="clip0">
<rect width="108" height="108" fill="white"/>
</clipPath>
</defs>
</svg>

<svg width="108" height="108" fill="none" xmlns="http://www.w3.org/2000/svg"><g clip-path="url(#clip0)"><path d="M106.788 40.312l-35.078.091v.124H36.29v-.032l-12.79.032-.031-.032H0v44.362c-.002 6.48 5.254 11.734 11.735 11.734h95.055a1.21 1.21 0 0 0 1.21-1.21V41.522c0-.669-.543-1.21-1.212-1.21z" fill="#5D5D5D"/><path d="M40.323 53.655l-2.782-3.709a.478.478 0 0 0-.764 0l-2.782 3.71a.478.478 0 0 0-.095.286V87.139a2.281 2.281 0 0 0 2.281 2.281h1.956a2.281 2.281 0 0 0 2.282-2.281V53.942a.478.478 0 0 0-.096-.287z" fill="#fff"/><path d="M40.419 81.217v5.922a2.281 2.281 0 0 1-2.282 2.281H36.18A2.281 2.281 0 0 1 33.9 87.14v-5.922h6.52z" fill="#fff"/><path d="M23.469 40.527v44.33c0-6.632-5.502-11.98-12.19-11.726-6.083.23-11.04 5.187-11.27 11.27-.007.152-.009.304-.009.456V39.18c0-6.447 5.13-11.824 11.578-11.908 6.552-.085 11.89 5.202 11.89 11.734v1.521zM89.42 84.995L54 85.086v-27.27c0-1.003.813-1.816 1.817-1.816h4.485c8.04 0 15.32 3.26 20.59 8.53 5.243 5.242 8.496 12.474 8.529 20.465zm-27.814-7.482h18.82c-2.93-7.734-10.2-13.351-18.82-13.868v13.868z" fill="#07BBF0"/></g><defs><clipPath id="clip0"><path fill="#fff" d="M0 0h108v108H0z"/></clipPath></defs></svg>
